svg/chili_pepper.svg

<svg xmlns="http://www.w3.org/2000/svg" width="24" height="24" viewBox="0 0 24 24"><path d="M13.75 9l1.2-.76c.63.34 1.05 1 1.05 1.76v11.75S8 20 8 11v-1c0-.73.39-1.37.97-1.72l1.46.72L12 8l1.75 1M10 2c1.53 0 2.8 1.15 3 2.64 1 .29 1.81 1.03 2.22 1.99l-1.47.87-1.75-1-1.57 1-1.67-.83c.39-.95 1.19-1.67 2.18-2.01A1.01 1.01 0 0 0 10 4V2z"/></svg>

<?xml version="1.0" encoding="UTF-8"?><!DOCTYPE svg PUBLIC "-//W3C//DTD SVG 1.1//EN" "http://www.w3.org/Graphics/SVG/1.1/DTD/svg11.dtd"><svg xmlns="http://www.w3.org/2000/svg" xmlns:xlink="http://www.w3.org/1999/xlink" version="1.1" width="24" height="24" viewBox="0 0 24 24"><path d="M13.75,9L14.95,8.24C15.58,8.58 16,9.24 16,10V21.75C16,21.75 8,20 8,11V10C8,9.27 8.39,8.63 8.97,8.28L10.43,9L12,8L13.75,9M10,2C11.53,2 12.8,3.15 13,4.64C14,4.93 14.81,5.67 15.22,6.63L13.75,7.5L12,6.5L10.43,7.5L8.76,6.67C9.15,5.72 9.95,5 10.94,4.66C10.8,4.28 10.43,4 10,4V2Z" /></svg>
